app/img/icons/bg-first-section-mob.svg

<svg width="375" height="436" viewBox="0 0 375 436" fill="none" xmlns="http://www.w3.org/2000/svg">
<path fill-rule="evenodd" clip-rule="evenodd" d="M-55.2054 687.461H-102C-102 687.461 85.8475 109.284 105.75 48.0486C115.062 19.398 141.757 0 171.877 0H255.534C280.762 0 301.817 10.6562 314.908 28.6634C327.99 46.6715 331.701 69.7134 324.073 93.22C316.434 116.727 309.219 138.916 302.614 159.247C293.696 186.699 268.99 205.614 240.425 207.153C240.425 207.153 240.277 207.105 280.3 83.9191C283.834 73.0483 282.544 62.4078 276.992 54.7764C271.451 47.1459 262.1 42.6299 249.727 42.6299H177.941C163.845 42.6299 151.354 51.7072 146.993 65.1147L-55.2054 687.461Z" fill="#F0145A"/>
<path fill-rule="evenodd" clip-rule="evenodd" d="M240.416 207.155H146.098L187.656 80.7613L234.673 81.0391L207.372 164.394L254.249 164.422L240.416 207.155Z" fill="url(#paint0_linear)"/>
<defs>
<linearGradient id="paint0_linear" x1="146.091" y1="182.946" x2="251.01" y2="237.784" gradientUnits="userSpaceOnUse">
<stop stop-color="#F0145A"/>
<stop offset="1" stop-color="#693264"/>
</linearGradient>
</defs>
</svg>

<svg xmlns="http://www.w3.org/2000/svg" width="375" height="436" fill="none" xmlns:v="https://vecta.io/nano"><g fill-rule="evenodd"><path d="M-55.205 687.461H-102L105.75 48.049A69.54 69.54 0 0 1 171.877 0h83.657c25.228 0 46.283 10.656 59.374 28.663 13.082 18.008 16.793 41.05 9.165 64.557l-21.459 66.027c-8.918 27.452-33.624 46.367-62.189 47.906 0 0-.148-.048 39.875-123.234 3.534-10.871 2.244-21.511-3.308-29.143-5.541-7.631-14.892-12.147-27.265-12.147h-71.786a32.55 32.55 0 0 0-30.948 22.485L-55.205 687.461z" fill="#f0145a"/><path d="M240.416 207.155h-94.318l41.558-126.394 47.017.278-27.301 83.355 46.877.028-13.833 42.733z" fill="url(#A)"/></g><defs><linearGradient id="A" x1="146.091" y1="182.946" x2="251.01" y2="237.784" gradientUnits="userSpaceOnUse"><stop stop-color="#f0145a"/><stop offset="1" stop-color="#693264"/></linearGradient></defs></svg>
